(Exported by FreeCAD)
(Post Processor: grbl_post)
(Output Time:2026-07-20 16:15:26.143216)
(Begin preamble)
G17 G90
G21
(Begin operation: Fixture)
(Path: Fixture)
G54
(Finish operation: Fixture)
(Begin operation: TC: 60 Deg. V-Bit)
(Path: TC: 60 Deg. V-Bit)
(TC: 60 Deg. V-Bit)
(Begin toolchange)
( M6 T1 )
(Finish operation: TC: 60 Deg. V-Bit)
(Begin operation: Engrave)
(Path: Engrave)
(Engrave)
G0 Z1.000
G0 Z1.000
G0 X7.333 Y0.000
G0 Z0.500
G1 X7.333 Y0.000 Z-0.200 F200.000
G1 X5.705 Y3.349 Z-0.200 F200.000
G1 X2.779 Y-0.000 Z-0.200 F200.000
G1 X0.000 Y0.000 Z-0.200 F200.000
G1 X4.493 Y5.131 Z-0.200 F200.000
G1 X2.123 Y10.000 Z-0.200 F200.000
G1 X4.754 Y10.000 Z-0.200 F200.000
G1 X6.295 Y6.858 Z-0.200 F200.000
G1 X9.033 Y10.000 Z-0.200 F200.000
G1 X11.833 Y10.000 Z-0.200 F200.000
G1 X7.500 Y5.064 Z-0.200 F200.000
G1 X9.951 Y-0.000 Z-0.200 F200.000
G1 X7.333 Y0.000 Z-0.200 F200.000
G0 Z1.000
G0 Z1.000
G0 X13.315 Y3.086
G0 Z0.500
G1 X13.315 Y3.086 Z-0.200 F200.000
G1 X13.308 Y2.968 Z-0.200 F200.000
G1 X13.302 Y2.852 Z-0.200 F200.000
G1 X13.338 Y2.462 Z-0.200 F200.000
G1 X13.438 Y2.153 Z-0.200 F200.000
G1 X13.592 Y1.909 Z-0.200 F200.000
G1 X13.740 Y1.761 Z-0.200 F200.000
G1 X13.993 Y1.600 Z-0.200 F200.000
G1 X14.316 Y1.483 Z-0.200 F200.000
G1 X14.726 Y1.414 Z-0.200 F200.000
G1 X15.056 Y1.400 Z-0.200 F200.000
G1 X15.671 Y1.436 Z-0.200 F200.000
G1 X16.653 Y1.630 Z-0.200 F200.000
G1 X17.398 Y1.872 Z-0.200 F200.000
G1 X18.418 Y2.314 Z-0.200 F200.000
G1 X18.050 Y0.457 Z-0.200 F200.000
G1 X17.203 Y0.175 Z-0.200 F200.000
G1 X16.305 Y-0.037 Z-0.200 F200.000
G1 X15.485 Y-0.154 Z-0.200 F200.000
G1 X14.541 Y-0.200 Z-0.200 F200.000
G1 X13.834 Y-0.164 Z-0.200 F200.000
G1 X13.226 Y-0.061 Z-0.200 F200.000
G1 X12.706 Y0.099 Z-0.200 F200.000
G1 X12.260 Y0.311 Z-0.200 F200.000
G1 X11.832 Y0.611 Z-0.200 F200.000
G1 X11.520 Y0.924 Z-0.200 F200.000
G1 X11.273 Y1.275 Z-0.200 F200.000
G1 X11.085 Y1.668 Z-0.200 F200.000
G1 X10.956 Y2.109 Z-0.200 F200.000
G1 X10.888 Y2.606 Z-0.200 F200.000
G1 X10.880 Y2.753 Z-0.200 F200.000
G1 X10.878 Y2.904 Z-0.200 F200.000
G1 X10.914 Y3.492 Z-0.200 F200.000
G1 X11.022 Y4.063 Z-0.200 F200.000
G1 X11.095 Y4.318 Z-0.200 F200.000
G1 X11.182 Y4.571 Z-0.200 F200.000
G1 X11.424 Y5.110 Z-0.200 F200.000
G1 X11.731 Y5.615 Z-0.200 F200.000
G1 X11.894 Y5.836 Z-0.200 F200.000
G1 X12.070 Y6.050 Z-0.200 F200.000
G1 X12.479 Y6.472 Z-0.200 F200.000
G1 X12.927 Y6.828 Z-0.200 F200.000
G1 X13.413 Y7.123 Z-0.200 F200.000
G1 X13.720 Y7.270 Z-0.200 F200.000
G1 X14.274 Y7.470 Z-0.200 F200.000
G1 X14.865 Y7.606 Z-0.200 F200.000
G1 X15.499 Y7.676 Z-0.200 F200.000
G1 X15.853 Y7.686 Z-0.200 F200.000
G1 X16.469 Y7.649 Z-0.200 F200.000
G1 X17.006 Y7.546 Z-0.200 F200.000
G1 X17.477 Y7.383 Z-0.200 F200.000
G1 X17.889 Y7.164 Z-0.200 F200.000
G1 X18.267 Y6.875 Z-0.200 F200.000
G1 X18.573 Y6.548 Z-0.200 F200.000
G1 X18.812 Y6.187 Z-0.200 F200.000
G1 X18.989 Y5.788 Z-0.200 F200.000
G1 X19.105 Y5.344 Z-0.200 F200.000
G1 X19.161 Y4.689 Z-0.200 F200.000
G1 X19.124 Y4.122 Z-0.200 F200.000
G1 X19.007 Y3.469 Z-0.200 F200.000
G1 X18.927 Y3.086 Z-0.200 F200.000
G1 X13.315 Y3.086 Z-0.200 F200.000
G0 Z1.000
G0 Z1.000
G0 X16.784 Y4.925
G0 Z0.500
G1 X16.784 Y4.925 Z-0.200 F200.000
G1 X16.748 Y5.259 Z-0.200 F200.000
G1 X16.647 Y5.528 Z-0.200 F200.000
G1 X16.564 Y5.656 Z-0.200 F200.000
G1 X16.462 Y5.772 Z-0.200 F200.000
G1 X16.243 Y5.935 Z-0.200 F200.000
G1 X15.981 Y6.039 Z-0.200 F200.000
G1 X15.795 Y6.074 Z-0.200 F200.000
G1 X15.592 Y6.086 Z-0.200 F200.000
G1 X15.179 Y6.049 Z-0.200 F200.000
G1 X14.820 Y5.946 Z-0.200 F200.000
G1 X14.600 Y5.839 Z-0.200 F200.000
G1 X14.396 Y5.702 Z-0.200 F200.000
G1 X14.129 Y5.448 Z-0.200 F200.000
G1 X13.898 Y5.125 Z-0.200 F200.000
G1 X13.761 Y4.864 Z-0.200 F200.000
G1 X13.643 Y4.571 Z-0.200 F200.000
G1 X16.744 Y4.571 Z-0.200 F200.000
G1 X16.774 Y4.748 Z-0.200 F200.000
G1 X16.784 Y4.925 Z-0.200 F200.000
G0 Z1.000
G0 Z1.000
G0 X26.333 Y5.804
G0 Z0.500
G1 X26.333 Y5.804 Z-0.200 F200.000
G1 X25.878 Y5.928 Z-0.200 F200.000
G1 X25.415 Y5.971 Z-0.200 F200.000
G1 X24.932 Y5.935 Z-0.200 F200.000
G1 X24.502 Y5.831 Z-0.200 F200.000
G1 X24.118 Y5.663 Z-0.200 F200.000
G1 X23.771 Y5.433 Z-0.200 F200.000
G1 X23.500 Y5.183 Z-0.200 F200.000
G1 X23.223 Y4.836 Z-0.200 F200.000
G1 X23.013 Y4.456 Z-0.200 F200.000
G1 X22.865 Y4.038 Z-0.200 F200.000
G1 X22.779 Y3.575 Z-0.200 F200.000
G1 X22.757 Y3.166 Z-0.200 F200.000
G1 X22.793 Y2.753 Z-0.200 F200.000
G1 X22.894 Y2.414 Z-0.200 F200.000
G1 X23.052 Y2.135 Z-0.200 F200.000
G1 X23.219 Y1.947 Z-0.200 F200.000
G1 X23.475 Y1.757 Z-0.200 F200.000
G1 X23.782 Y1.621 Z-0.200 F200.000
G1 X24.151 Y1.538 Z-0.200 F200.000
G1 X24.525 Y1.514 Z-0.200 F200.000
G1 X25.047 Y1.551 Z-0.200 F200.000
G1 X25.629 Y1.680 Z-0.200 F200.000
G1 X26.122 Y1.869 Z-0.200 F200.000
G1 X26.661 Y2.171 Z-0.200 F200.000
G1 X26.292 Y0.200 Z-0.200 F200.000
G1 X25.560 Y-0.007 Z-0.200 F200.000
G1 X25.094 Y-0.100 Z-0.200 F200.000
G1 X24.364 Y-0.184 Z-0.200 F200.000
G1 X23.882 Y-0.200 Z-0.200 F200.000
G1 X23.163 Y-0.164 Z-0.200 F200.000
G1 X22.547 Y-0.061 Z-0.200 F200.000
G1 X22.021 Y0.098 Z-0.200 F200.000
G1 X21.574 Y0.309 Z-0.200 F200.000
G1 X21.159 Y0.595 Z-0.200 F200.000
G1 X20.847 Y0.902 Z-0.200 F200.000
G1 X20.600 Y1.247 Z-0.200 F200.000
G1 X20.412 Y1.634 Z-0.200 F200.000
G1 X20.284 Y2.068 Z-0.200 F200.000
G1 X20.215 Y2.558 Z-0.200 F200.000
G1 X20.208 Y2.703 Z-0.200 F200.000
G1 X20.205 Y2.851 Z-0.200 F200.000
G1 X20.242 Y3.436 Z-0.200 F200.000
G1 X20.350 Y4.008 Z-0.200 F200.000
G1 X20.442 Y4.323 Z-0.200 F200.000
G1 X20.557 Y4.634 Z-0.200 F200.000
G1 X20.816 Y5.176 Z-0.200 F200.000
G1 X21.137 Y5.678 Z-0.200 F200.000
G1 X21.342 Y5.940 Z-0.200 F200.000
G1 X21.565 Y6.190 Z-0.200 F200.000
G1 X22.010 Y6.601 Z-0.200 F200.000
G1 X22.485 Y6.940 Z-0.200 F200.000
G1 X22.853 Y7.145 Z-0.200 F200.000
G1 X23.239 Y7.317 Z-0.200 F200.000
G1 X23.800 Y7.497 Z-0.200 F200.000
G1 X24.422 Y7.619 Z-0.200 F200.000
G1 X24.906 Y7.669 Z-0.200 F200.000
G1 X25.415 Y7.686 Z-0.200 F200.000
G1 X26.076 Y7.649 Z-0.200 F200.000
G1 X26.547 Y7.579 Z-0.200 F200.000
G1 X27.202 Y7.417 Z-0.200 F200.000
G1 X27.665 Y7.257 Z-0.200 F200.000
G1 X27.283 Y5.314 Z-0.200 F200.000
G1 X26.759 Y5.621 Z-0.200 F200.000
G1 X26.333 Y5.804 Z-0.200 F200.000
G0 Z1.000
G0 Z1.000
G0 X30.538 Y2.275
G0 Z0.500
G1 X30.538 Y2.275 Z-0.200 F200.000
G1 X30.574 Y2.000 Z-0.200 F200.000
G1 X30.674 Y1.784 Z-0.200 F200.000
G1 X30.736 Y1.706 Z-0.200 F200.000
G1 X30.809 Y1.634 Z-0.200 F200.000
G1 X31.019 Y1.501 Z-0.200 F200.000
G1 X31.282 Y1.422 Z-0.200 F200.000
G1 X31.414 Y1.406 Z-0.200 F200.000
G1 X31.556 Y1.400 Z-0.200 F200.000
G1 X31.958 Y1.436 Z-0.200 F200.000
G1 X32.306 Y1.540 Z-0.200 F200.000
G1 X32.612 Y1.706 Z-0.200 F200.000
G1 X32.788 Y1.844 Z-0.200 F200.000
G1 X33.034 Y2.113 Z-0.200 F200.000
G1 X33.232 Y2.440 Z-0.200 F200.000
G1 X33.385 Y2.833 Z-0.200 F200.000
G1 X33.451 Y3.097 Z-0.200 F200.000
G1 X33.504 Y3.371 Z-0.200 F200.000
G1 X32.353 Y3.371 Z-0.200 F200.000
G1 X31.760 Y3.335 Z-0.200 F200.000
G1 X31.320 Y3.239 Z-0.200 F200.000
G1 X31.148 Y3.173 Z-0.200 F200.000
G1 X30.996 Y3.094 Z-0.200 F200.000
G1 X30.776 Y2.918 Z-0.200 F200.000
G1 X30.633 Y2.713 Z-0.200 F200.000
G1 X30.555 Y2.473 Z-0.200 F200.000
G1 X30.538 Y2.275 Z-0.200 F200.000
G0 Z1.000
G0 Z1.000
G0 X32.862 Y0.000
G0 Z0.500
G1 X32.862 Y0.000 Z-0.200 F200.000
G1 X33.062 Y1.112 Z-0.200 F200.000
G1 X32.631 Y0.675 Z-0.200 F200.000
G1 X32.202 Y0.342 Z-0.200 F200.000
G1 X32.011 Y0.223 Z-0.200 F200.000
G1 X31.817 Y0.120 Z-0.200 F200.000
G1 X31.374 Y-0.056 Z-0.200 F200.000
G1 X30.907 Y-0.162 Z-0.200 F200.000
G1 X30.652 Y-0.191 Z-0.200 F200.000
G1 X30.391 Y-0.200 Z-0.200 F200.000
G1 X29.873 Y-0.164 Z-0.200 F200.000
G1 X29.435 Y-0.062 Z-0.200 F200.000
G1 X29.063 Y0.098 Z-0.200 F200.000
G1 X28.700 Y0.353 Z-0.200 F200.000
G1 X28.447 Y0.624 Z-0.200 F200.000
G1 X28.263 Y0.929 Z-0.200 F200.000
G1 X28.140 Y1.272 Z-0.200 F200.000
G1 X28.090 Y1.548 Z-0.200 F200.000
G1 X28.074 Y1.844 Z-0.200 F200.000
G1 X28.110 Y2.342 Z-0.200 F200.000
G1 X28.214 Y2.779 Z-0.200 F200.000
G1 X28.379 Y3.165 Z-0.200 F200.000
G1 X28.605 Y3.508 Z-0.200 F200.000
G1 X28.895 Y3.814 Z-0.200 F200.000
G1 X29.033 Y3.930 Z-0.200 F200.000
G1 X29.182 Y4.039 Z-0.200 F200.000
G1 X29.601 Y4.283 Z-0.200 F200.000
G1 X30.095 Y4.485 Z-0.200 F200.000
G1 X30.677 Y4.642 Z-0.200 F200.000
G1 X31.358 Y4.748 Z-0.200 F200.000
G1 X32.379 Y4.800 Z-0.200 F200.000
G1 X33.792 Y4.800 Z-0.200 F200.000
G1 X33.819 Y4.984 Z-0.200 F200.000
G1 X33.842 Y5.118 Z-0.200 F200.000
G1 X33.846 Y5.192 Z-0.200 F200.000
G1 X33.810 Y5.435 Z-0.200 F200.000
G1 X33.708 Y5.629 Z-0.200 F200.000
G1 X33.541 Y5.790 Z-0.200 F200.000
G1 X33.427 Y5.861 Z-0.200 F200.000
G1 X33.134 Y5.977 Z-0.200 F200.000
G1 X32.728 Y6.056 Z-0.200 F200.000
G1 X32.470 Y6.078 Z-0.200 F200.000
G1 X32.185 Y6.086 Z-0.200 F200.000
G1 X31.481 Y6.049 Z-0.200 F200.000
G1 X30.746 Y5.929 Z-0.200 F200.000
G1 X30.099 Y5.745 Z-0.200 F200.000
G1 X29.400 Y5.457 Z-0.200 F200.000
G1 X29.761 Y7.286 Z-0.200 F200.000
G1 X30.675 Y7.488 Z-0.200 F200.000
G1 X31.298 Y7.584 Z-0.200 F200.000
G1 X32.229 Y7.668 Z-0.200 F200.000
G1 X32.929 Y7.686 Z-0.200 F200.000
G1 X33.714 Y7.649 Z-0.200 F200.000
G1 X34.350 Y7.550 Z-0.200 F200.000
G1 X34.860 Y7.398 Z-0.200 F200.000
G1 X35.151 Y7.267 Z-0.200 F200.000
G1 X35.406 Y7.112 Z-0.200 F200.000
G1 X35.691 Y6.866 Z-0.200 F200.000
G1 X35.910 Y6.581 Z-0.200 F200.000
G1 X36.071 Y6.253 Z-0.200 F200.000
G1 X36.173 Y5.874 Z-0.200 F200.000
G1 X36.217 Y5.364 Z-0.200 F200.000
G1 X36.186 Y4.864 Z-0.200 F200.000
G1 X36.096 Y4.277 Z-0.200 F200.000
G1 X35.259 Y-0.000 Z-0.200 F200.000
G1 X32.862 Y0.000 Z-0.200 F200.000
G0 Z1.000
G0 Z1.000
G0 X46.927 Y8.404
G0 Z0.500
G1 X46.927 Y8.404 Z-0.200 F200.000
G1 X40.445 Y1.943 Z-0.200 F200.000
G1 X45.835 Y1.943 Z-0.200 F200.000
G1 X45.447 Y0.000 Z-0.200 F200.000
G1 X36.742 Y0.000 Z-0.200 F200.000
G1 X37.043 Y1.596 Z-0.200 F200.000
G1 X43.545 Y8.057 Z-0.200 F200.000
G1 X38.456 Y8.057 Z-0.200 F200.000
G1 X38.837 Y10.000 Z-0.200 F200.000
G1 X47.248 Y10.000 Z-0.200 F200.000
G1 X46.927 Y8.404 Z-0.200 F200.000
G0 Z1.000
G0 Z1.000
G0 X50.086 Y0.000
G0 Z0.500
G1 X50.086 Y0.000 Z-0.200 F200.000
G1 X47.669 Y0.000 Z-0.200 F200.000
G1 X48.178 Y2.600 Z-0.200 F200.000
G1 X50.588 Y2.600 Z-0.200 F200.000
G1 X50.086 Y0.000 Z-0.200 F200.000
G0 Z1.000
G0 Z1.000
G0 X58.875 Y5.804
G0 Z0.500
G1 X58.875 Y5.804 Z-0.200 F200.000
G1 X58.421 Y5.928 Z-0.200 F200.000
G1 X57.958 Y5.971 Z-0.200 F200.000
G1 X57.475 Y5.935 Z-0.200 F200.000
G1 X57.045 Y5.831 Z-0.200 F200.000
G1 X56.661 Y5.663 Z-0.200 F200.000
G1 X56.314 Y5.433 Z-0.200 F200.000
G1 X56.043 Y5.183 Z-0.200 F200.000
G1 X55.766 Y4.836 Z-0.200 F200.000
G1 X55.556 Y4.456 Z-0.200 F200.000
G1 X55.408 Y4.038 Z-0.200 F200.000
G1 X55.322 Y3.575 Z-0.200 F200.000
G1 X55.300 Y3.166 Z-0.200 F200.000
G1 X55.336 Y2.753 Z-0.200 F200.000
G1 X55.437 Y2.414 Z-0.200 F200.000
G1 X55.595 Y2.135 Z-0.200 F200.000
G1 X55.762 Y1.947 Z-0.200 F200.000
G1 X56.018 Y1.757 Z-0.200 F200.000
G1 X56.325 Y1.621 Z-0.200 F200.000
G1 X56.694 Y1.538 Z-0.200 F200.000
G1 X57.067 Y1.514 Z-0.200 F200.000
G1 X57.590 Y1.551 Z-0.200 F200.000
G1 X58.172 Y1.680 Z-0.200 F200.000
G1 X58.665 Y1.869 Z-0.200 F200.000
G1 X59.204 Y2.171 Z-0.200 F200.000
G1 X58.835 Y0.200 Z-0.200 F200.000
G1 X58.103 Y-0.007 Z-0.200 F200.000
G1 X57.637 Y-0.100 Z-0.200 F200.000
G1 X56.906 Y-0.184 Z-0.200 F200.000
G1 X56.425 Y-0.200 Z-0.200 F200.000
G1 X55.705 Y-0.164 Z-0.200 F200.000
G1 X55.090 Y-0.061 Z-0.200 F200.000
G1 X54.564 Y0.098 Z-0.200 F200.000
G1 X54.116 Y0.309 Z-0.200 F200.000
G1 X53.702 Y0.595 Z-0.200 F200.000
G1 X53.390 Y0.902 Z-0.200 F200.000
G1 X53.143 Y1.247 Z-0.200 F200.000
G1 X52.955 Y1.634 Z-0.200 F200.000
G1 X52.827 Y2.068 Z-0.200 F200.000
G1 X52.758 Y2.558 Z-0.200 F200.000
G1 X52.751 Y2.703 Z-0.200 F200.000
G1 X52.748 Y2.851 Z-0.200 F200.000
G1 X52.785 Y3.436 Z-0.200 F200.000
G1 X52.893 Y4.008 Z-0.200 F200.000
G1 X52.985 Y4.323 Z-0.200 F200.000
G1 X53.100 Y4.634 Z-0.200 F200.000
G1 X53.359 Y5.176 Z-0.200 F200.000
G1 X53.680 Y5.678 Z-0.200 F200.000
G1 X53.884 Y5.940 Z-0.200 F200.000
G1 X54.108 Y6.190 Z-0.200 F200.000
G1 X54.553 Y6.601 Z-0.200 F200.000
G1 X55.028 Y6.940 Z-0.200 F200.000
G1 X55.396 Y7.145 Z-0.200 F200.000
G1 X55.782 Y7.317 Z-0.200 F200.000
G1 X56.343 Y7.497 Z-0.200 F200.000
G1 X56.965 Y7.619 Z-0.200 F200.000
G1 X57.449 Y7.669 Z-0.200 F200.000
G1 X57.958 Y7.686 Z-0.200 F200.000
G1 X58.619 Y7.649 Z-0.200 F200.000
G1 X59.090 Y7.579 Z-0.200 F200.000
G1 X59.745 Y7.417 Z-0.200 F200.000
G1 X60.208 Y7.257 Z-0.200 F200.000
G1 X59.826 Y5.314 Z-0.200 F200.000
G1 X59.302 Y5.621 Z-0.200 F200.000
G1 X58.875 Y5.804 Z-0.200 F200.000
G0 Z1.000
G0 Z1.000
G0 X69.308 Y4.514
G0 Z0.500
G1 X69.308 Y4.514 Z-0.200 F200.000
G1 X69.272 Y3.928 Z-0.200 F200.000
G1 X69.164 Y3.359 Z-0.200 F200.000
G1 X69.093 Y3.109 Z-0.200 F200.000
G1 X69.007 Y2.861 Z-0.200 F200.000
G1 X68.766 Y2.324 Z-0.200 F200.000
G1 X68.461 Y1.822 Z-0.200 F200.000
G1 X68.302 Y1.606 Z-0.200 F200.000
G1 X68.130 Y1.396 Z-0.200 F200.000
G1 X67.718 Y0.974 Z-0.200 F200.000
G1 X67.271 Y0.621 Z-0.200 F200.000
G1 X66.789 Y0.331 Z-0.200 F200.000
G1 X66.516 Y0.202 Z-0.200 F200.000
G1 X65.972 Y0.007 Z-0.200 F200.000
G1 X65.389 Y-0.125 Z-0.200 F200.000
G1 X64.924 Y-0.181 Z-0.200 F200.000
G1 X64.440 Y-0.200 Z-0.200 F200.000
G1 X63.786 Y-0.164 Z-0.200 F200.000
G1 X63.216 Y-0.061 Z-0.200 F200.000
G1 X62.718 Y0.102 Z-0.200 F200.000
G1 X62.282 Y0.320 Z-0.200 F200.000
G1 X61.832 Y0.651 Z-0.200 F200.000
G1 X61.516 Y0.982 Z-0.200 F200.000
G1 X61.267 Y1.348 Z-0.200 F200.000
G1 X61.079 Y1.753 Z-0.200 F200.000
G1 X60.952 Y2.202 Z-0.200 F200.000
G1 X60.886 Y2.704 Z-0.200 F200.000
G1 X60.880 Y2.837 Z-0.200 F200.000
G1 X60.878 Y2.972 Z-0.200 F200.000
G1 X60.914 Y3.548 Z-0.200 F200.000
G1 X61.023 Y4.113 Z-0.200 F200.000
G1 X61.097 Y4.370 Z-0.200 F200.000
G1 X61.186 Y4.625 Z-0.200 F200.000
G1 X61.433 Y5.171 Z-0.200 F200.000
G1 X61.744 Y5.683 Z-0.200 F200.000
G1 X61.901 Y5.896 Z-0.200 F200.000
G1 X62.070 Y6.103 Z-0.200 F200.000
G1 X62.476 Y6.519 Z-0.200 F200.000
G1 X62.918 Y6.869 Z-0.200 F200.000
G1 X63.400 Y7.158 Z-0.200 F200.000
G1 X63.667 Y7.283 Z-0.200 F200.000
G1 X64.211 Y7.480 Z-0.200 F200.000
G1 X64.792 Y7.612 Z-0.200 F200.000
G1 X65.247 Y7.667 Z-0.200 F200.000
G1 X65.719 Y7.686 Z-0.200 F200.000
G1 X66.380 Y7.649 Z-0.200 F200.000
G1 X66.956 Y7.546 Z-0.200 F200.000
G1 X67.458 Y7.384 Z-0.200 F200.000
G1 X67.896 Y7.167 Z-0.200 F200.000
G1 X68.351 Y6.834 Z-0.200 F200.000
G1 X68.668 Y6.504 Z-0.200 F200.000
G1 X68.918 Y6.138 Z-0.200 F200.000
G1 X69.106 Y5.734 Z-0.200 F200.000
G1 X69.234 Y5.286 Z-0.200 F200.000
G1 X69.300 Y4.785 Z-0.200 F200.000
G1 X69.306 Y4.651 Z-0.200 F200.000
G1 X69.308 Y4.514 Z-0.200 F200.000
G0 Z1.000
G0 Z1.000
G0 X63.389 Y2.971
G0 Z0.500
G1 X63.389 Y2.971 Z-0.200 F200.000
G1 X63.425 Y2.533 Z-0.200 F200.000
G1 X63.523 Y2.195 Z-0.200 F200.000
G1 X63.608 Y2.030 Z-0.200 F200.000
G1 X63.713 Y1.887 Z-0.200 F200.000
G1 X63.917 Y1.708 Z-0.200 F200.000
G1 X64.166 Y1.588 Z-0.200 F200.000
G1 X64.470 Y1.524 Z-0.200 F200.000
G1 X64.661 Y1.514 Z-0.200 F200.000
G1 X65.032 Y1.551 Z-0.200 F200.000
G1 X65.366 Y1.656 Z-0.200 F200.000
G1 X65.672 Y1.828 Z-0.200 F200.000
G1 X65.955 Y2.073 Z-0.200 F200.000
G1 X66.195 Y2.363 Z-0.200 F200.000
G1 X66.429 Y2.757 Z-0.200 F200.000
G1 X66.608 Y3.199 Z-0.200 F200.000
G1 X66.729 Y3.698 Z-0.200 F200.000
G1 X66.780 Y4.100 Z-0.200 F200.000
G1 X66.797 Y4.528 Z-0.200 F200.000
G1 X66.761 Y4.962 Z-0.200 F200.000
G1 X66.663 Y5.297 Z-0.200 F200.000
G1 X66.578 Y5.460 Z-0.200 F200.000
G1 X66.472 Y5.602 Z-0.200 F200.000
G1 X66.268 Y5.779 Z-0.200 F200.000
G1 X66.019 Y5.899 Z-0.200 F200.000
G1 X65.714 Y5.962 Z-0.200 F200.000
G1 X65.525 Y5.971 Z-0.200 F200.000
G1 X65.153 Y5.935 Z-0.200 F200.000
G1 X64.819 Y5.830 Z-0.200 F200.000
G1 X64.513 Y5.657 Z-0.200 F200.000
G1 X64.229 Y5.413 Z-0.200 F200.000
G1 X63.992 Y5.125 Z-0.200 F200.000
G1 X63.757 Y4.733 Z-0.200 F200.000
G1 X63.578 Y4.293 Z-0.200 F200.000
G1 X63.456 Y3.796 Z-0.200 F200.000
G1 X63.406 Y3.397 Z-0.200 F200.000
G1 X63.389 Y2.971 Z-0.200 F200.000
G0 Z1.000
G0 Z1.000
G0 X81.141 Y7.686
G0 Z0.500
G1 X81.141 Y7.686 Z-0.200 F200.000
G1 X81.629 Y7.649 Z-0.200 F200.000
G1 X82.040 Y7.547 Z-0.200 F200.000
G1 X82.388 Y7.388 Z-0.200 F200.000
G1 X82.725 Y7.134 Z-0.200 F200.000
G1 X82.959 Y6.861 Z-0.200 F200.000
G1 X83.132 Y6.548 Z-0.200 F200.000
G1 X83.246 Y6.188 Z-0.200 F200.000
G1 X83.289 Y5.914 Z-0.200 F200.000
G1 X83.304 Y5.620 Z-0.200 F200.000
G1 X83.274 Y5.162 Z-0.200 F200.000
G1 X83.183 Y4.577 Z-0.200 F200.000
G1 X82.293 Y0.000 Z-0.200 F200.000
G1 X79.875 Y0.000 Z-0.200 F200.000
G1 X80.632 Y3.919 Z-0.200 F200.000
G1 X80.652 Y4.020 Z-0.200 F200.000
G1 X80.783 Y4.703 Z-0.200 F200.000
G1 X80.826 Y5.087 Z-0.200 F200.000
G1 X80.790 Y5.367 Z-0.200 F200.000
G1 X80.691 Y5.579 Z-0.200 F200.000
G1 X80.655 Y5.626 Z-0.200 F200.000
G1 X80.615 Y5.671 Z-0.200 F200.000
G1 X80.436 Y5.802 Z-0.200 F200.000
G1 X80.214 Y5.872 Z-0.200 F200.000
G1 X80.131 Y5.882 Z-0.200 F200.000
G1 X80.043 Y5.886 Z-0.200 F200.000
G1 X79.707 Y5.849 Z-0.200 F200.000
G1 X79.407 Y5.744 Z-0.200 F200.000
G1 X79.132 Y5.571 Z-0.200 F200.000
G1 X78.874 Y5.318 Z-0.200 F200.000
G1 X78.640 Y4.985 Z-0.200 F200.000
G1 X78.437 Y4.565 Z-0.200 F200.000
G1 X78.267 Y4.043 Z-0.200 F200.000
G1 X78.188 Y3.698 Z-0.200 F200.000
G1 X77.465 Y0.000 Z-0.200 F200.000
G1 X75.047 Y0.000 Z-0.200 F200.000
G1 X75.817 Y3.919 Z-0.200 F200.000
G1 X75.958 Y4.681 Z-0.200 F200.000
G1 X75.998 Y5.087 Z-0.200 F200.000
G1 X75.962 Y5.373 Z-0.200 F200.000
G1 X75.864 Y5.585 Z-0.200 F200.000
G1 X75.829 Y5.631 Z-0.200 F200.000
G1 X75.791 Y5.674 Z-0.200 F200.000
G1 X75.614 Y5.802 Z-0.200 F200.000
G1 X75.392 Y5.872 Z-0.200 F200.000
G1 X75.306 Y5.882 Z-0.200 F200.000
G1 X75.215 Y5.886 Z-0.200 F200.000
G1 X74.895 Y5.849 Z-0.200 F200.000
G1 X74.601 Y5.743 Z-0.200 F200.000
G1 X74.324 Y5.564 Z-0.200 F200.000
G1 X74.053 Y5.298 Z-0.200 F200.000
G1 X73.808 Y4.954 Z-0.200 F200.000
G1 X73.601 Y4.535 Z-0.200 F200.000
G1 X73.435 Y4.031 Z-0.200 F200.000
G1 X73.360 Y3.698 Z-0.200 F200.000
G1 X72.637 Y0.000 Z-0.200 F200.000
G1 X70.233 Y0.000 Z-0.200 F200.000
G1 X71.692 Y7.514 Z-0.200 F200.000
G1 X74.103 Y7.514 Z-0.200 F200.000
G1 X73.882 Y6.415 Z-0.200 F200.000
G1 X74.311 Y6.842 Z-0.200 F200.000
G1 X74.742 Y7.171 Z-0.200 F200.000
G1 X74.910 Y7.274 Z-0.200 F200.000
G1 X75.081 Y7.367 Z-0.200 F200.000
G1 X75.523 Y7.548 Z-0.200 F200.000
G1 X75.970 Y7.653 Z-0.200 F200.000
G1 X76.187 Y7.678 Z-0.200 F200.000
G1 X76.407 Y7.686 Z-0.200 F200.000
G1 X76.857 Y7.649 Z-0.200 F200.000
G1 X77.253 Y7.546 Z-0.200 F200.000
G1 X77.505 Y7.434 Z-0.200 F200.000
G1 X77.739 Y7.290 Z-0.200 F200.000
G1 X78.021 Y7.044 Z-0.200 F200.000
G1 X78.224 Y6.773 Z-0.200 F200.000
G1 X78.358 Y6.472 Z-0.200 F200.000
G1 X78.409 Y6.268 Z-0.200 F200.000
G1 X78.802 Y6.695 Z-0.200 F200.000
G1 X79.218 Y7.041 Z-0.200 F200.000
G1 X79.440 Y7.189 Z-0.200 F200.000
G1 X79.671 Y7.320 Z-0.200 F200.000
G1 X80.132 Y7.517 Z-0.200 F200.000
G1 X80.595 Y7.638 Z-0.200 F200.000
G1 X80.866 Y7.674 Z-0.200 F200.000
G1 X81.141 Y7.686 Z-0.200 F200.000
G0 Z1.000
(Finish operation: Engrave)
(Begin postamble)
M5
G17 G90
M2
